X:1
T:James Gibb editions
T:Adoramus te - Asola
T:#
%%score [ 1 2 3 4 ]
L:1/8
Q:1/4=120
M:4/4
K:F
V:1 treble nm="Alto I"
V:2 treble nm="Alto II"
V:3 treble-8 nm="Tenor"
V:4 bass nm="Bass"
V:1
"^Adoramus te""^Giovanni Matteo Asola\n(1560-1609 )" A8 | A4 B4- | B4 A4 | G4 G4- | G2 G2 ^F4 | %5
w: A-|do- ra\-|* mus|te, Do\-|* mi- ne|
 G4 A4 | (F4 G4) | A8 | F4 G4- | G2 G2 A4- | A2 A2 A4 |[M:4/4] G8 | A8 | B8 | A4 G4 | G6 G2 | %16
w: Je- su|Chri\- *|ste,|et be\-|* ne- di\-|* ci- mus|ti-|bi:|qui-|a per|san- ctam|
 G4 G4 | A8 | G8 | A4 A4- | A2 A2 G4- | G4 A4 | B8 | A8 | A4 B4 | A4 A2 (A2- | A2 G^F G4) | ^F8 | %28
w: cru- cem|tu-|am;|et pas\-|* si- o\-|* nem|tu-|am.|re- de-|mi- sti mun\-||dum.|
 G6 G2 | A8 | z4 B4- | B2 B2 A4 | A6 A2 | G4 A4 | (F4 G4 | A8) | A8- | A8 |] %38
w: Do- mi-|ne,|Do\-|* mi- ne,|mi- se-|re- re|no\- *||bis.||
V:2
 E8 | ^F4 G4- | G4 C4 | C4 (B,3 C | D2) D2 D4 | D4 F2 (F2- | FEDC D4) | E8 | D4 D4- | D2 E2 F4- | %10
w: A-|do- ra\-|* mus|te, Do\- *|* mi- ne|Je- su Chri\-||ste,|et be\-|* ne- di\-|
 F2 F2 F2 (F2- |[M:4/4] F2 ED E4) | F8 | F8 | F4 D4 | _E6 E2 | D6 E2 | F8 | E8 | F4 F4- | %20
w: * ci- mus ti\-||bi:|qui-|a per|san- ctam|cru- cem|tu-|am;|et pas\-|
 F2 F2 E4- | E4 F4 | G8 | F8 | ^F4 G4 | E4 !courtesy!=F4 | D8 | D8 | D6 D2 | F8 | z4 F4- | %31
w: * si- o\-|* nem|tu-|am.|re- de-|mi- sti|mun-|dum.|Do- mi-|ne,|Do\-|
 F2 G2 E4 | F6 F2 | D4 F2 (F2- | FEDC D4 | E8 | F8) | E8 |] %38
w: * mi- ne,|mi- se-|re- re no\-||||bis.|
V:3
 ^c8 | d4 d4- | d4 f4 | _e4 (d3 c | B2) B2 A4 | B4 c4 | d8 | ^c8 | A4 =B4- | B2 _B2 c4- | %10
w: A-|do- ra\-|* mus|te, Do\- *|* mi- ne|Je- su|Chri-|ste,|et be\-|* ne- di\-|
 c2 c2 c4 |[M:4/4][K:treble-8] c8 | c8 | d8 | c4 B4 | c6 c2 | B4 B4 | c8 | c8 | c4 c4- | %20
w: * ci- mus|ti-|bi:|qui-|a per|san- ctam|cru- cem|tu-|am;|et pas\-|
 c2 c2 c4- | c4 c4 | _e8 | c8 | d4 d4 | c6 c2 | B8 | A8 | =B6 B2 | c8 | z4 d4- | d2 d2 ^c4 | %32
w: * si- o\-|* nem|tu-|am.|re- de-|mi- sti|mun-|dum.|Do- mi-|ne,|Do\-|* mi- ne,|
 d6 d2 | (=B4 c4) | d4 (d4 | d2 ^c=B c4 | d8) | ^c8 |] %38
w: mi- se-|re\- *|re no\-|||bis.|
V:4
 A,8 | D,4 G,4- | G,4 F,4 | C,4 G,4- | G,2 G,2 D,4 | G,4 F,4 | B,8 | A,8 | D,4 G,4- | %9
w: A-|do- ra\-|* mus|te, Do\-|* mi- ne|Je- su|Chri-|ste,|et be\-|
 G,2 G,2 F,4- | F,2 F,2 F,4 |[M:4/4] C,8 | F,8 | B,8 | F,4 G,4 | C,6 C,2 | G,4 G,4 | F,8 | C,8 | %19
w: * ne- di\-|* ci- mus|ti-|bi:|qui-|a per|san- ctam|cru- cem|tu-|am;|
 F,4 F,4- | F,2 F,2 C,4- | C,4 F,4 | _E,8 | F,8 | D,4 G,4 | A,4 F,4 | G,8 | D,8 | G,6 G,2 | F,8 | %30
w: et pas\-|* si- o\-|* nem|tu-|am.|re- de-|mi- sti|mun-|dum.|Do- mi-|ne,|
 z4 B,4- | B,2 G,2 A,4 | D,6 D,2 | G,4 F,4 | B,8 | A,8 | D,8 | A,8 |] %38
w: Do\-|* mi- ne,|mi- se-|re- re|no-|bis,|no-|bis.|

